bundle/image/components/fullCard/img/vertical-text.svg

<svg width="17" height="163" viewBox="0 0 17 163" fill="none" xmlns="http://www.w3.org/2000/svg">
<path d="M16.7738 163L0.226236 163L0.226236 155.821C0.226236 154.587 0.468631 153.507 0.953422 152.581C1.43821 151.656 2.11961 150.936 2.99762 150.421C3.87563 149.907 4.90177 149.65 6.07605 149.65C7.26109 149.65 8.28723 149.915 9.15447 150.446C10.0217 150.971 10.6896 151.71 11.1583 152.663C11.6269 153.61 11.8612 154.717 11.8612 155.984L11.8612 160.271L8.37072 160.271L8.37072 156.893C8.37072 156.363 8.27915 155.911 8.09601 155.537C7.90748 155.158 7.64084 154.869 7.2961 154.668C6.95136 154.463 6.54468 154.36 6.07605 154.36C5.60203 154.36 5.19804 154.463 4.86407 154.668C4.52471 154.869 4.26616 155.158 4.0884 155.537C3.90526 155.911 3.81369 156.363 3.81369 156.893L3.81369 158.485L16.7738 158.485L16.7738 163Z" fill="#F8EC2C"/>
<path d="M5.39734 139.028C4.85868 139.071 4.43853 139.274 4.13688 139.637C3.83523 139.994 3.68441 140.539 3.68441 141.269C3.68441 141.735 3.74097 142.117 3.85409 142.414C3.96182 142.707 4.10995 142.923 4.29848 143.064C4.48701 143.205 4.70247 143.278 4.94487 143.283C5.14417 143.294 5.32462 143.259 5.48622 143.178C5.64243 143.091 5.78517 142.956 5.91445 142.772C6.03834 142.588 6.15146 142.352 6.2538 142.065C6.35615 141.778 6.44772 141.437 6.52852 141.042L6.81939 139.678C7.01331 138.757 7.26917 137.97 7.58698 137.315C7.90478 136.66 8.27915 136.124 8.71008 135.707C9.13561 135.29 9.61502 134.984 10.1483 134.789C10.6816 134.589 11.2633 134.486 11.8935 134.481C12.9816 134.486 13.9027 134.759 14.6568 135.301C15.411 135.842 15.9846 136.616 16.3779 137.623C16.7711 138.625 16.9677 139.829 16.9677 141.237C16.9677 142.682 16.7549 143.944 16.3294 145.021C15.9038 146.093 15.2494 146.927 14.366 147.522C13.4772 148.112 12.3406 148.41 10.9563 148.415L10.9563 144.128C11.4626 144.101 11.8881 143.974 12.2329 143.746C12.5776 143.519 12.8389 143.199 13.0166 142.788C13.1944 142.371 13.2833 141.876 13.2833 141.302C13.2833 140.82 13.224 140.417 13.1055 140.092C12.987 139.767 12.8227 139.521 12.6126 139.353C12.4026 139.185 12.1629 139.098 11.8935 139.093C11.6404 139.098 11.4195 139.182 11.231 139.345C11.0371 139.502 10.8647 139.762 10.7139 140.124C10.5577 140.487 10.4122 140.977 10.2776 141.594L9.92205 143.251C9.60425 144.723 9.07367 145.885 8.33032 146.735C7.58159 147.579 6.56084 147.999 5.26806 147.993C4.21768 147.999 3.29927 147.717 2.51283 147.149C1.72101 146.575 1.10424 145.782 0.662547 144.769C0.220848 143.752 -8.92372e-07 142.585 -9.49876e-07 141.269C-1.00856e-06 139.927 0.223541 138.766 0.670626 137.786C1.11771 136.806 1.74794 136.051 2.56131 135.52C3.3693 134.984 4.31464 134.713 5.39734 134.708L5.39734 139.028Z" fill="#F8EC2C"/>
<path d="M0.226235 133.445L0.226234 128.41L6.94867 125.162L6.94867 125.032L0.226234 121.784L0.226234 116.749L11.5703 122.856L16.7738 122.856L16.7738 127.339L11.5703 127.339L0.226235 133.445Z" fill="#F8EC2C"/>
<path d="M6.43156 100.912L6.43156 105.492C6.0545 105.525 5.71245 105.611 5.40542 105.752C5.09838 105.887 4.83444 106.077 4.61359 106.321C4.38736 106.559 4.21499 106.848 4.09648 107.189C3.97259 107.53 3.91064 107.918 3.91064 108.351C3.91064 109.109 4.09379 109.75 4.46007 110.275C4.82636 110.795 5.35155 111.19 6.03564 111.461C6.71974 111.726 7.54119 111.859 8.5 111.859C9.51267 111.859 10.3611 111.723 11.0452 111.453C11.7239 111.177 12.2356 110.779 12.5803 110.259C12.9197 109.739 13.0894 109.114 13.0894 108.383C13.0894 107.966 13.0382 107.593 12.9358 107.262C12.8281 106.932 12.6746 106.645 12.4753 106.402C12.276 106.158 12.0363 105.96 11.7562 105.809C11.4707 105.652 11.1502 105.546 10.7947 105.492L10.827 100.912C11.5272 100.966 12.241 101.164 12.9682 101.505C13.69 101.846 14.3579 102.331 14.972 102.959C15.5806 103.581 16.0708 104.353 16.4425 105.273C16.8142 106.193 17 107.262 17 108.481C17 110.007 16.6741 111.377 16.0223 112.59C15.3706 113.797 14.4118 114.752 13.1459 115.456C11.8801 116.155 10.3314 116.504 8.5 116.504C6.65779 116.504 5.10646 116.146 3.84601 115.432C2.58016 114.717 1.62405 113.754 0.977659 112.541C0.325885 111.328 -2.31781e-06 109.975 -2.38312e-06 108.481C-2.42903e-06 107.43 0.142741 106.464 0.428229 105.582C0.713717 104.699 1.13118 103.925 1.68061 103.259C2.22465 102.593 2.89528 102.057 3.69249 101.651C4.4897 101.245 5.40272 100.999 6.43156 100.912Z" fill="#F8EC2C"/>
<path d="M16.7738 98.8638L0.226233 98.8638L0.226233 94.3488L6.69011 94.3488L6.69011 88.372L0.226233 88.372L0.226232 83.857L16.7738 83.857L16.7738 88.372L10.3099 88.372L10.3099 94.3488L16.7738 94.3488L16.7738 98.8638Z" fill="#F8EC2C"/>
<path d="M8.5 65.602C10.3422 65.602 11.8962 65.962 13.1621 66.682C14.4225 67.402 15.3786 68.3738 16.0304 69.5973C16.6768 70.8208 17 72.185 17 73.69C17 75.2059 16.6741 76.5756 16.0223 77.7991C15.3652 79.0171 14.4064 79.9862 13.1459 80.7062C11.8801 81.4208 10.3314 81.7781 8.5 81.7781C6.65779 81.7781 5.10646 81.4208 3.846 80.7062C2.58016 79.9862 1.62405 79.0171 0.977658 77.7991C0.325883 76.5756 -3.8376e-06 75.2059 -3.90386e-06 73.69C-3.96965e-06 72.185 0.325883 70.8208 0.977658 69.5973C1.62405 68.3738 2.58016 67.402 3.846 66.682C5.10646 65.962 6.65779 65.602 8.5 65.602ZM8.5 70.2469C7.50887 70.2469 6.67395 70.3796 5.99524 70.6448C5.31115 70.9047 4.79404 71.2918 4.44391 71.8061C4.0884 72.315 3.91064 72.943 3.91064 73.69C3.91064 74.4371 4.0884 75.0678 4.44391 75.5821C4.79404 76.091 5.31115 76.4781 5.99524 76.7434C6.67395 77.0032 7.50887 77.1332 8.5 77.1332C9.49112 77.1332 10.3287 77.0032 11.0128 76.7434C11.6915 76.4781 12.2086 76.091 12.5642 75.5821C12.9143 75.0678 13.0894 74.4371 13.0894 73.69C13.0894 72.943 12.9143 72.315 12.5642 71.8061C12.2086 71.2918 11.6915 70.9047 11.0128 70.6448C10.3287 70.3796 9.49112 70.2469 8.5 70.2469Z" fill="#F8EC2C"/>
<path d="M16.7738 63.513L0.226232 63.513L0.226231 58.9979L13.154 58.9979L13.154 52.2741L16.7738 52.2741L16.7738 63.513Z" fill="#F8EC2C"/>
<path d="M8.49999 34.9854C10.3422 34.9854 11.8962 35.3454 13.1621 36.0655C14.4225 36.7855 15.3786 37.7572 16.0304 38.9807C16.6768 40.2042 17 41.5685 17 43.0735C17 44.5893 16.6741 45.959 16.0223 47.1825C15.3652 48.4006 14.4064 49.3696 13.1459 50.0897C11.8801 50.8043 10.3314 51.1616 8.5 51.1616C6.65779 51.1616 5.10646 50.8043 3.846 50.0897C2.58016 49.3696 1.62404 48.4006 0.977657 47.1825C0.325882 45.959 -5.17589e-06 44.5893 -5.24215e-06 43.0735C-5.30794e-06 41.5685 0.325882 40.2042 0.977656 38.9807C1.62404 37.7572 2.58016 36.7855 3.846 36.0655C5.10646 35.3454 6.65779 34.9854 8.49999 34.9854ZM8.49999 39.6304C7.50887 39.6304 6.67395 39.763 5.99524 40.0283C5.31115 40.2881 4.79404 40.6752 4.44391 41.1895C4.0884 41.6984 3.91064 42.3264 3.91064 43.0735C3.91064 43.8206 4.0884 44.4513 4.44391 44.9656C4.79404 45.4745 5.31115 45.8616 5.99524 46.1268C6.67395 46.3867 7.50887 46.5166 8.5 46.5166C9.49112 46.5166 10.3287 46.3867 11.0128 46.1268C11.6915 45.8616 12.2086 45.4745 12.5642 44.9656C12.9143 44.4513 13.0893 43.8206 13.0893 43.0735C13.0893 42.3264 12.9143 41.6984 12.5642 41.1895C12.2086 40.6752 11.6915 40.2881 11.0128 40.0283C10.3287 39.763 9.49112 39.6304 8.49999 39.6304Z" fill="#F8EC2C"/>
<path d="M5.68821 22.0961C5.40272 22.1664 5.15224 22.2774 4.93678 22.429C4.71593 22.5806 4.5301 22.7701 4.37927 22.9974C4.22306 23.2194 4.10725 23.4793 4.03184 23.777C3.95104 24.0693 3.91064 24.3915 3.91064 24.7434C3.91064 25.5013 4.09109 26.1482 4.45199 26.6842C4.81289 27.2147 5.33269 27.6207 6.0114 27.9023C6.69011 28.1784 7.50887 28.3164 8.46768 28.3164C9.43726 28.3164 10.2668 28.1838 10.9563 27.9185C11.6457 27.6532 12.1736 27.258 12.5399 26.7329C12.9062 26.2078 13.0893 25.5554 13.0893 24.7758C13.0893 24.0883 12.9897 23.5172 12.7904 23.0624C12.5911 22.6022 12.3083 22.2585 11.942 22.0311C11.5757 21.8037 11.1448 21.69 10.6492 21.69L10.73 20.9105L10.73 24.7109L7.53041 24.7109L7.53041 17.3374L9.82509 17.3374C11.3333 17.3374 12.6234 17.6595 13.6953 18.3037C14.7619 18.9426 15.5806 19.825 16.1516 20.9511C16.7172 22.0717 17 23.3574 17 24.8083C17 26.427 16.6579 27.8481 15.9739 29.0716C15.2898 30.2951 14.3148 31.2506 13.049 31.9382C11.7831 32.6203 10.2776 32.9614 8.53232 32.9614C7.16413 32.9614 5.95215 32.7529 4.89638 32.3361C3.84062 31.9138 2.94914 31.3291 2.22195 30.582C1.48938 29.8349 0.937257 28.9715 0.565583 27.9916C0.188524 27.0117 -5.99015e-06 25.9614 -6.03913e-06 24.8408C-6.0822e-06 23.8555 0.140045 22.9406 0.420147 22.0961C0.694861 21.2461 1.08808 20.4963 1.5998 19.8467C2.10614 19.1916 2.70674 18.6638 3.40161 18.2631C4.09648 17.8625 4.85868 17.6189 5.68821 17.5323L5.68821 22.0961Z" fill="#F8EC2C"/>
<path d="M0.226229 16.6959L0.226229 11.6611L6.94866 8.4129L6.94866 8.28298L0.226229 5.03475L0.226229 1.5566e-06L11.5703 6.10666L16.7738 6.10666L16.7738 10.5892L11.5703 10.5892L0.226229 16.6959Z" fill="#F8EC2C"/>
</svg>

<svg width="17" height="163" fill="none" xmlns="http://www.w3.org/2000/svg"><path d="M16.774 163H.226v-7.179c0-1.234.243-2.314.727-3.24a5.302 5.302 0 0 1 2.045-2.16c.878-.514 1.904-.771 3.078-.771 1.185 0 2.211.265 3.078.796.868.525 1.536 1.264 2.004 2.217.469.947.703 2.054.703 3.321v4.287h-3.49v-3.378c0-.53-.092-.982-.275-1.356a2.018 2.018 0 0 0-.8-.869c-.345-.205-.751-.308-1.22-.308-.474 0-.878.103-1.212.308-.34.201-.598.49-.776.869-.183.374-.274.826-.274 1.356v1.592h12.96V163zM5.397 139.028c-.538.043-.958.246-1.26.609-.302.357-.453.902-.453 1.632 0 .466.057.848.17 1.145.108.293.256.509.444.65.189.141.404.214.647.219.2.011.38-.024.541-.105.156-.087.3-.222.428-.406.124-.184.237-.42.34-.707.102-.287.194-.628.275-1.023l.29-1.364c.194-.921.45-1.708.768-2.363s.692-1.191 1.123-1.608a4.005 4.005 0 0 1 1.438-.918 5.048 5.048 0 0 1 1.745-.308c1.089.005 2.01.278 2.764.82.754.541 1.328 1.315 1.72 2.322.394 1.002.59 2.206.59 3.614 0 1.445-.212 2.707-.638 3.784-.425 1.072-1.08 1.906-1.963 2.501-.889.59-2.025.888-3.41.893v-4.287c.507-.027.932-.154 1.277-.382.345-.227.606-.547.784-.958.177-.417.266-.912.266-1.486 0-.482-.059-.885-.178-1.21-.118-.325-.282-.571-.492-.739a1.156 1.156 0 0 0-.72-.26 1.013 1.013 0 0 0-.662.252c-.194.157-.366.417-.517.779-.156.363-.302.853-.436 1.47l-.356 1.657c-.318 1.472-.848 2.634-1.592 3.484-.748.844-1.77 1.264-3.062 1.258-1.05.006-1.969-.276-2.755-.844-.792-.574-1.409-1.367-1.85-2.38-.442-1.017-.663-2.184-.663-3.5 0-1.342.224-2.503.67-3.483.448-.98 1.078-1.735 1.891-2.266.808-.536 1.754-.807 2.836-.812v4.32zM.226 133.445v-5.035l6.723-3.248v-.13l-6.723-3.248v-5.035l11.344 6.107h5.204v4.483H11.57L.226 133.445zM6.432 100.912v4.58c-.378.033-.72.119-1.027.26a2.309 2.309 0 0 0-.791.569 2.368 2.368 0 0 0-.518.868 3.391 3.391 0 0 0-.185 1.162c0 .758.183 1.399.55 1.924.365.52.89.915 1.575 1.186.684.265 1.505.398 2.464.398 1.013 0 1.861-.136 2.545-.406.679-.276 1.19-.674 1.535-1.194.34-.52.51-1.145.51-1.876 0-.417-.052-.79-.154-1.121a2.625 2.625 0 0 0-.46-.86 2.374 2.374 0 0 0-.72-.593 2.874 2.874 0 0 0-.961-.317l.032-4.58c.7.054 1.414.252 2.141.593.722.341 1.39.826 2.004 1.454.609.622 1.099 1.394 1.47 2.314.372.92.558 1.989.558 3.208 0 1.526-.326 2.896-.978 4.109-.651 1.207-1.61 2.162-2.876 2.866-1.266.699-2.815 1.048-4.646 1.048-1.842 0-3.394-.358-4.654-1.072-1.266-.715-2.222-1.678-2.868-2.891-.652-1.213-.978-2.566-.978-4.06 0-1.051.143-2.017.428-2.899a6.984 6.984 0 0 1 1.253-2.323 6.19 6.19 0 0 1 2.011-1.608c.798-.406 1.71-.652 2.74-.739zM16.774 98.864H.226v-4.515H6.69v-5.977H.226v-4.515h16.548v4.515H10.31v5.977h6.464v4.515zM8.5 65.602c1.842 0 3.396.36 4.662 1.08 1.26.72 2.217 1.692 2.868 2.915.647 1.224.97 2.588.97 4.093 0 1.516-.326 2.886-.978 4.11-.657 1.217-1.616 2.186-2.876 2.906-1.266.715-2.815 1.072-4.646 1.072-1.842 0-3.394-.357-4.654-1.072-1.266-.72-2.222-1.689-2.868-2.907C.326 76.576 0 75.206 0 73.69c0-1.505.326-2.87.978-4.093.646-1.223 1.602-2.195 2.868-2.915 1.26-.72 2.812-1.08 4.654-1.08zm0 4.645c-.991 0-1.826.133-2.505.398-.684.26-1.201.647-1.551 1.161-.356.509-.533 1.137-.533 1.884 0 .747.177 1.378.533 1.892.35.509.867.896 1.551 1.161.679.26 1.514.39 2.505.39.991 0 1.829-.13 2.513-.39.678-.265 1.196-.652 1.551-1.16.35-.515.525-1.146.525-1.893 0-.747-.175-1.375-.525-1.884-.355-.514-.873-.901-1.551-1.161-.684-.265-1.522-.398-2.513-.398zM16.774 63.513H.226v-4.515h12.928v-6.724h3.62v11.239zM8.5 34.985c1.842 0 3.396.36 4.662 1.08 1.26.72 2.217 1.692 2.868 2.916.647 1.223.97 2.587.97 4.093 0 1.515-.326 2.885-.978 4.108-.657 1.219-1.616 2.188-2.876 2.908-1.266.714-2.815 1.072-4.646 1.072-1.842 0-3.394-.358-4.654-1.072-1.266-.72-2.222-1.69-2.868-2.908C.326 45.96 0 44.59 0 43.075c0-1.505.326-2.87.978-4.093.646-1.224 1.602-2.196 2.868-2.916 1.26-.72 2.812-1.08 4.654-1.08zm0 4.645c-.991 0-1.826.133-2.505.398-.684.26-1.201.647-1.551 1.162-.356.508-.533 1.136-.533 1.884 0 .747.177 1.377.533 1.892.35.508.867.896 1.551 1.16.679.26 1.514.39 2.505.39.991 0 1.829-.13 2.513-.39.678-.264 1.196-.651 1.551-1.16.35-.515.525-1.145.525-1.892 0-.748-.175-1.376-.525-1.884-.355-.515-.873-.902-1.551-1.162-.684-.265-1.522-.398-2.513-.398zM5.688 22.096a2.21 2.21 0 0 0-.751.333 2.07 2.07 0 0 0-.558.568 2.338 2.338 0 0 0-.347.78c-.081.292-.121.614-.121.966 0 .758.18 1.405.541 1.941.36.53.88.937 1.56 1.218.678.276 1.497.414 2.456.414.97 0 1.799-.132 2.488-.397.69-.266 1.218-.661 1.584-1.186.366-.525.55-1.178.55-1.957 0-.688-.1-1.259-.3-1.714-.199-.46-.482-.803-.848-1.03-.366-.228-.797-.342-1.293-.342l.081-.78v3.8h-3.2v-7.373h2.295c1.508 0 2.798.323 3.87.967a6.388 6.388 0 0 1 2.457 2.647c.565 1.12.848 2.406.848 3.857 0 1.619-.342 3.04-1.026 4.264-.684 1.223-1.66 2.179-2.925 2.866-1.266.682-2.771 1.023-4.517 1.023-1.368 0-2.58-.208-3.636-.625-1.055-.422-1.947-1.007-2.674-1.754a7.418 7.418 0 0 1-1.656-2.59A8.698 8.698 0 0 1 0 24.84c0-.986.14-1.9.42-2.745.275-.85.668-1.6 1.18-2.25a6.137 6.137 0 0 1 1.802-1.583 5.711 5.711 0 0 1 2.286-.73v4.563zM.226 16.696V11.66L6.95 8.413v-.13L.226 5.035V0L11.57 6.107h5.204v4.482H11.57L.226 16.696z" fill="#F8EC2C"/></svg>
